X:1
T:Title
T:Emiya
T:Composer: Hideyuki Fukasawa Arrangement by u/Cthulhu_Seeker 
C:Composer
%%score { 1 | ( 2 3 ) }
L:1/8
Q:1/4=130
M:4/4
K:Gb
V:1 treble nm="Piano" snm="Pno."
V:2 bass 
V:3 bass 
V:1
!8va(!!ped! f''3!ped! e''2 b''g''f'' | e''2 b'g' f'e'bg!8va)! | feBG FEB, z | z8 | z8 | z8 | z8 | %7
 z8 | z8 | z8 | z4!ped-up!!ped!!ped-up!!ped! z/ B,3/4B/B,/4- B,2!ped-up! | %11
!ped! B,/!ped!B/B,/ z3/2 B,/B/ B,/ z3/2 B,/B/B,/ z/!ped-up! | %12
!ped! z!ped! C/c/ C/ z3/2 C/c/C/ z3/2 C/c/!ped-up! | %13
!ped! C/!ped! z3/2 C/c/C/ z3/2 D/d/ D/ z3/2!ped-up! | %14
!ped! D/!ped!d/D/ z3/2 D/d/ D/ z3/2 D/d/D/ z/!ped-up! | %15
!ped! z!ped! A,/A/ A,/ z3/2 A,/A/A,/ z3/2 A,/A/!ped-up! | %16
!ped! A,/!ped! z3/2 A,/A/A,/ z3/2 B,/B/ B,/ z3/2!ped-up! | %17
!ped! B,/!ped!B/B,/ z3/2 B,/B/ B,/ z3/2 B,/B/B,/ z/!ped-up! | %18
!ped! z!ped! C/c/ C/ z3/2 C/c/C/ z3/2 C/c/!ped-up! | %19
!ped! C/!ped! z3/2 C/c/C/ z3/2 D/d/ D/ z3/2!ped-up! | %20
!ped! D/!ped!d/D/ z3/2 D/d/ D/ z3/2 D/d/D/ z/!ped-up! | %21
!ped! z!ped! A/a/ A/ z3/2 A/a/A/ z3/2 A/a/!ped-up! | A/ z3/2 A/a/A/ z4 z/ | z8 | %24
 z4!ped-up!!ped!!ped-up!!ped! [Bb]2 [Ff]2 | [Aa]2 [Gg]2 [Ff]2 [Ee]2 | %26
 [Dd]2!ped-up!!ped!!ped-up!!ped! [Ee]2 [Bb]2 [Ff]2 | [Aa]2 [Gg]2 [Ff]2 [Ee]2 | %28
 [Dd]2 [Ee]2!ped-up!!ped!!ped-up!!ped! [Bb]2 [Ff]2 | [Aa]2 [Gg]2 [Ff]2 [Ee]2 | %30
 [Dd]2 [Ee]2!ped-up!!ped!!ped-up!!ped! [Bb]2 [Ff]2 | [Aa]2 [Gg]2 [Ff]2 [Ee]2 | %32
 [Dd]2 [Ee]2!ped-up!!ped!!ped-up!!ped! [bb']2 [ff']2 | [aa']2 [gg']2 [ff']2 [ee']2 | %34
 [dd']2 [ee']2!ped-up!!ped!!ped-up!!ped! [bb']2 [ff']2 | [aa']2 [gg']2 [ff']2 [ee']2 | %36
 [dd']2 [ee']2!ped-up!!ped!!ped-up!!ped! [bb']2 [ff']2 | [aa']2 [gg']2 [ff']2 [ee']2 | %38
 [dd']2 [ee']2!ped-up!!ped! [bb']2 [ff']2 | [aa']2 [gg']2 [ff']2 [ee']2 | [dd']2 [ee']2 z4 | %41
 z4!ped-up!!ped! F!ped-up!!ped!EB,G, | z4 F4 | E4 G4- | G4 z4 | E4!ped-up!!ped! F4-!ped-up!!ped! | %46
 F4 A4- | A4!ped-up!!ped! G4-!ped-up!!ped! | G4 F4- | F4!ped-up!!ped! E4-!ped-up!!ped! | E4 z4 | %51
 [FA]4!ped-up!!ped! [GB]4-!ped-up!!ped! | [GB]4 z4 | [FA]4!ped-up!!ped! [FA]4-!ped-up!!ped! | %54
 [FA]4 [DF]4- | [DF]4!ped-up!!ped! [EG]4-!ped-up!!ped! | [EG]4 [FA]4- | %57
 [FA]4!ped-up!!ped! e-!ped-up!!ped!b-e'-[e-b-e'] | [eb]8 |!ped! z!ped!!ped-up! e!ped-up!be' ebe'e | %60
 be'eb e'ebe' |!ped! [Ff]!ped![Ee][B,B][G,G] z4 | [Ff]4 [Ee]4!ped-up! |!ped! [Gg]8-!ped!!ped-up! | %64
 [Gg]4 [Ee]4!ped-up! |!ped! [Ff]8!ped!!ped-up! | [Aa]8!ped-up! |!ped! [Gg]8!ped!!ped-up! | %68
!ped! [Ff]8!ped!!ped-up! |!ped! [Ee]8-!ped!!ped-up! | [Ee]4 [Aa]4!ped-up! | %71
!ped! [Bb]8-!ped!!ped-up! | [Bb]4 [Aa]4!ped-up! |!ped! [Aa]8!ped!!ped-up! | [Ff]8!ped-up! | %75
!ped! [Gg]8!ped!!ped-up! | [Aa]8!ped-up! |!ped! e!ped!be'e be'eb!ped-up! | e'ebe' ebe'e!ped-up! | %79
!ped! e!ped!be'e be'eb!ped-up! | e'ebe' ebe' z!ped-up! | %81
!ped! z!ped! F/f/ F/ z3/2 F/f/F/ z3/2 E/e/!ped-up! | E/ z3/2 E/e/E/ z3/2 E/e/ E/ z/ z!ped-up! | %83
!ped! E/!ped!e/E/ z3/2 E/e/ E/ z3/2 G/g/G/ z/!ped-up! | z A/a/ A/ z3/2 A/a/A/ z3/2 F/f/!ped-up! | %85
!ped! F/!ped! z3/2 F/f/F/ z3/2 E/e/ E/ z3/2!ped-up! | E/e/E/ z3/2 D/d/ D/ z3/2 D/d/D/ z/!ped-up! | %87
!ped! z!ped! E/e/ E/ z3/2 E/e/E/ z3/2 E/e/!ped-up! | E/ z/ z A/a/A/ z3/2 B/b/ B/ z3/2!ped-up! | %89
!ped! B/!ped!b/B/ z3/2 B/b/ B/ z3/2 B/b/B/ z/!ped-up! | %90
 z d/d'/ d/ z3/2 d/d'/d/ z3/2 d/d'/!ped-up! | %91
!ped! d/!ped! z3/2 d/d'/d/ z3/2 e/e'/ e/ z3/2!ped-up! | e/e'/e/ z3/2 d/d'/ d/ z3/2 d/d'/d/ z/ | %93
 z8!ped-up! |!ped! e!ped!be'e be'eb!ped-up! | e'ebe' ebe'e!ped-up! | %96
!ped! e!ped!be'e be'eb!ped-up! | e'ebe' ebe' z!ped-up! | z8!ped!!ped-up! | z8 | %100
!ped! z!ped! [Bb]2 [Ff]2 [Aa]2 [Gg]-!ped-up! | [Gg] [Ff]2 [Ee]2 [Dd]2 [Ee]!ped-up! | %102
!ped! z!ped! [Bb]2 [Ff]2 [Aa]2 [Gg]-!ped-up! | [Gg] [Ff]2 [Ee]2 [Dd]2 [Ee]!ped-up! | %104
!ped! z!ped! [Bb]2 [Ff]2 [Aa]2 [Gg]-!ped-up! | [Gg] [Ff]2 [Ee]2 [Dd]2 [Ee]!ped-up! | %106
!ped! z!ped! [Bb]2 [Ff]2 [Aa]2 [Gg]-!ped-up! | [Gg] [Ff]2 [Ee]2 [Dd]2 [Ee]!ped-up! | %108
!ped! z!ped! [bb']2 [ff']2 [aa']2 [gg']-!ped-up! | [gg'] [ff']2 [ee']2 [dd']2 [ee']!ped-up! | %110
!ped! z!ped! [bb']2 [ff']2 [aa']2 [gg']-!ped-up! | [gg'] [ff']2 [ee']2 [dd']2 [ee']!ped-up! | %112
!ped! z!ped! [bb']2 [ff']2 [aa']2 [gg']-!ped-up! | [gg'] [ff']2 [ee']2 [dd']2 [ee']!ped-up! | %114
!ped! z!ped! [bb']2 [ff']2 [aa']2 [gg']-!ped-up! | [gg'] [ff']2 [ee']2 [dd']2 [ee'] | z8!ped-up! | %117
!ped! [ff']!ped![ee'][Bb][Gg] z4!ped-up! | [ff']4 [ee']4!ped-up! |!ped! [gg']8-!ped!!ped-up! | %120
 [gg']4 [ee']4!ped-up! |!ped! [ff']8!ped!!ped-up! | [aa']8!ped-up! |!ped! [gg']8!ped!!ped-up! | %124
 [ff']8!ped-up! |!ped! [ee']8-!ped!!ped-up! | [ee']4 [aa']4!ped-up! |!ped! [bb']8-!ped!!ped-up! | %128
 [bb']4 [aa']4!ped-up! |!ped! [aa']8!ped!!ped-up! | [ff']8!ped-up! |!ped! [gg']8!ped!!ped-up! | %132
!ped! [aa']8!ped!!ped-up! |!ped! e!ped!be'e be'eb!ped-up! | e'ebe' ebe'e!ped-up! | %135
!ped! e!ped!be'e be'eb!ped-up! | e'ebe' ebe'e!ped-up! |!ped! e!ped!be'e be'eb!ped-up! | %138
 e'ebe' ebe'e!ped-up! |!ped! e!ped!be'e be'eb!ped-up! | e'ebe' ebe'e!ped-up! | %141
!ped! e!ped!be'e be'eb!ped-up! | e'ebe' ebe'e!ped-up! |!ped! e!ped!be'e be'eb!ped-up! | %144
 e'ebe' ebe'e!ped-up! |!ped! e8-!ped!!ped-up! | e8!ped-up! |!ped! feBG z4!ped-up! | f4 e4 | g8- | %150
 g4 e4 | f8 | a8 | g8 | f8 | e8- | e4 [fa]4 | [gb]8- | [gb]4 [fa]4 | [fa]8 | [df]8 | [eg]8 | %162
 [fa]8- | [fa]8 |] %164
V:2
 z8 | z8 | z4 z2 z G, | F,E, B,,2 G,,2 F,,2- | F,,8- | F,,6 [E,,,E,,]2- | [E,,,E,,]8- | %7
 [E,,,E,,]8- | [E,,,E,,]8- | [E,,,E,,]8- | [E,,,E,,]3 E,,, E,,-E,,- E,,/E,,,/E,, | %11
 z3/2 E,,/ E,,,/E,,/ z3/2 E,,/E,,,/E,,/ z3/2 E,,/ | %12
 E,,,/E,,/ z3/2 E,,/E,,,/E,,/ z3/2 E,,/ E,,,/E,,/ z | %13
 z/ E,,/E,,,/E,,/ z3/2 E,,/ E,,,/E,,/ z3/2 F,,/F,,,/F,,/ | %14
 z3/2 F,,/ F,,,/F,,/ z3/2 F,,/F,,,/F,,/ z3/2 F,,/ | %15
 D,,,/D,,/ z3/2 D,,/D,,,/D,,/ z3/2 D,,/ D,,,/D,,/ z | %16
 z/ D,,/D,,,/D,,/ z3/2 D,,/ E,,,/E,,/ z3/2 E,,/E,,,/E,,/ | %17
 z3/2 E,,/ E,,,/E,,/ z3/2 E,,/E,,,/E,,/ z3/2 E,,/ | %18
 E,,,/E,,/ z3/2 E,,/E,,,/E,,/ z3/2 E,,/ E,,,/E,,/ z | %19
 z/ E,,/E,,,/E,,/ z3/2 E,,/ F,,,/F,,/ z3/2 F,,/F,,,/F,,/ | %20
 z3/2 F,,/ F,,,/F,,/ z3/2 F,,/F,,,/F,,/ z3/2 F,,/ | %21
 D,,,/D,,/ z3/2 D,,/D,,,/D,,/ z3/2 D,,/ D,,,/D,,/ z | z/ D,,/D,,,/D,,/ z3/2 D,,/ D,,,/ z7/2 | z8 | %24
 z2 z [E,,,E,,]2 [B,,E,]2 [B,,E,]- | [B,,E,] [B,,E,]2 [B,,E,]2 [B,,E,]2 [B,,E,]- | %26
 [B,,E,] [E,,,E,,]2 [C,E,]2 [C,E,]2 [C,E,]- | [C,E,] [C,E,]2 [C,E,]2 [C,E,]2 [C,E,]- | %28
 [C,E,] [C,E,]2 [F,,,F,,]2 [D,F,]2 [D,F,]- | [D,F,] [D,F,]2 [D,F,]2 [D,F,]2 [D,F,]- | %30
 [D,F,] [D,F,]2 [D,,,D,,]2 [A,,D,]2 [A,,D,]- | [A,,D,] [A,,D,]2 [A,,D,]2 [A,,D,]2 [A,,D,]- | %32
 [A,,D,] [A,,D,]2 [E,,,E,,]2 [B,,E,]2 [B,,E,] | [B,,E,] [B,,E,]2 [B,,E,]2 [B,,E,]2 [B,,E,]- | %34
 [B,,E,] [B,,E,]2 [E,,,E,,]2 [C,E,]2 [C,E,]- | [C,E,-] [C,E,]2 [C,E,]2 [C,E,]2 [C,E,]- | %36
 [C,E,] [C,E,]2 [F,,,F,,]2 [D,F,]2 [D,F,]- | [D,F,] [D,F,]2 [D,F,]2 [D,F,]2 [D,F,]- | %38
 [D,F,] [D,F,]2 [D,,,D,,]2 [D,A,]2 [D,A,]- | [D,A,] [D,A,]2 [D,A,]2 [D,A,]2 [D,A,]- | %40
 [D,A,] [D,A,]2 z z4 | z4 [E,,,E,,]4- | [E,,,E,,]4 [B,,E,]2 [B,,E,]2 | [B,,E,]2 [B,,E,]2 C,,4- | %44
 C,,4 [G,,C,]2 [G,,C,]2 | [G,,C,]2 [G,,C,]2 [D,,,D,,]4- | [D,,,D,,]4 [A,,D,]2 [A,,D,]2 | %47
 [A,,D,]2 [A,,D,]2 [A,,,A,,]4- | [A,,,A,,]4 [D,,,D,,]4- | [D,,,D,,]4 [E,,,E,,]4- | %50
 [E,,,E,,]4 [B,,E,]2 [B,,E,]2 | [B,,E,]2 [B,,E,]2 C,,4- | C,,4 [G,,C,]2 [G,,C,]2 | %53
 [G,,C,]2 [G,,C,]2 [D,,,D,,]4- | [D,,,D,,]4 [A,,D,]2 [A,,D,]2 | [A,,D,]2 [A,,D,]2 [A,,,A,,]4- | %56
 [A,,,A,,]4 [D,,,D,,]4- | [D,,,D,,]4 [E,,,E,,]4- | [E,,,E,,]8 | E,,,-[E,,,E,,]- [E,,,E,,]6- | %60
 [E,,,E,,]8 | E,,3 [E,,-B,,]4 E,, | E,,B,,E,,B,, E,,B,,E,,B,, | C,3 [C,G,]3- [C,G,]2 | %64
 C,G,C,G, C,G,C,G, | D,,4 [D,,A,,]4 | D,,A,,D,,A,, D,,A,,D,,A,, | [A,,,A,,]4 [A,,E,]4 | %68
 [D,,,D,,]4 [D,,A,,]4 | [E,,,E,,]4 [E,,B,,]4 | E,,B,,E,,B,, E,,B,,E,,B,, | C,,4 [C,,G,,]4 | %72
 C,,G,,C,,G,, C,,G,,C,,G,, | [D,,,D,,]4 [D,,A,,]4 | D,,A,,D,,A,, D,,A,,D,,A,, | %75
 [A,,,A,,]3 [A,,E,]- [A,,E,]4 | [D,,,D,,]3 [D,,A,,]- [D,,A,,]4 | [E,,,E,,]8- | [E,,,E,,]8 | %79
 [E,,,E,,]8- | [E,,,E,,]8 | F,,,/E,,/ z3/2 E,,/E,,,/E,,/ z3/2 E,,/ E,,,/E,,/ z | %82
 z/ E,,/E,,,/E,,/ z3/2 E,,/ C,,/C,,/ z3/2 C,,/C,,/C,,/ | %83
 z3/2 C,,/ C,,/C,,/ z3/2 C,,/C,,/C,,/ z3/2 C,,/ | %84
 D,,,/D,,/ z3/2 D,,/D,,,/D,,/ z3/2 D,,/ D,,,/D,,/ z | %85
 z/ D,,/D,,,/D,,/ z3/2 D,,/ A,,,/A,,/ z3/2 A,,/A,,,/A,,/ | %86
 z3/2 A,,/ D,,,/D,,/ z3/2 D,,/D,,,/D,,/ z3/2 D,,/ | %87
 E,,,/E,,/ z3/2 E,,/E,,,/E,,/ z3/2 E,,/ E,,,/E,,/ z | %88
 z/ E,,/E,,,/E,,/ z3/2 E,,/ C,,/C,,/ z3/2 C,,/C,,/C,,/ | %89
 z3/2 C,,/ C,,/C,,/ z3/2 C,,/C,,/C,,/ z3/2 C,,/ | %90
 D,,,/D,,/ z3/2 D,,/D,,,/D,,/ z3/2 D,,/ D,,,/D,,/ z | %91
 z/ D,,/D,,,/D,,/ z3/2 D,,/ A,,,/A,,/ z3/2 A,,/A,,,/A,,/ | %92
 z3/2 A,,/ D,,,/D,,/ z3/2 D,,/D,,,/D,,/ z3/2 D,,/ | D,,,8 | [E,,,E,,]8 | z8 | [E,,,E,,]8 | z8 | %98
 E,,,E,,E,,,E,, E,,,/E,,/E,,,/E,,/ E,,,/E,,/E,,,/E,,/ | %99
 E,,,/E,,/E,,,/E,,/ E,,,/E,,/E,,,/E,,/ E,,,/E,,/E,,,/E,,/ E,,,/E,,/E,,,/E,,/ | %100
 [E,,,E,,]2 [B,,E,]2 [B,,E,]2 [B,,E,]2 | [B,,E,]2 [B,,E,]2 [B,,E,]2 [B,,E,]2 | %102
 [E,,,E,,]2 [C,E,]2 [C,E,]2 [C,E,]2 | [C,E,]2 [C,E,]2 [C,E,]2 [C,E,]2 | %104
 [F,,,F,,]2 [D,F,]2 [D,F,]2 [D,F,]2 | [D,F,]2 [D,F,]2 [D,F,]2 [D,F,]2 | %106
 [D,,,D,,]2 [A,,D,]2 [A,,D,]2 [A,,D,]2 | [A,,D,]2 [A,,D,]2 [A,,D,]2 [A,,D,]2 | %108
 [E,,,E,,]2 [B,,E,]2 [B,,E,]2 [B,,E,]2 | [B,,E,]2 [B,,E,]2 [B,,E,]2 [B,,E,]2 | %110
 [E,,,E,,]2 [C,E,]2 [C,E,]2 [C,E,]2 | [C,E,]2 [C,E,]2 [C,E,]2 [C,E,]2 | %112
 [F,,,F,,]2 [D,F,]2 [D,F,]2 [D,F,]2 | [D,F,]2 [D,F,]2 [D,F,]2 [D,F,]2 | %114
 [D,,,D,,]2 [D,A,]2 [D,A,]2 [D,A,]2 | [D,A,]2 [D,A,]2 [D,A,]2 [D,A,]2 | z8 | [E,,,E,,]4 [E,,B,,]4 | %118
 E,,B,,E,,B,, E,,B,,E,,B,, | C,,4 [C,,G,,]4 | C,,G,,C,,G,, C,,G,,C,,G,, | [D,,,D,,]4 [D,,A,,]4 | %122
 D,,A,,D,,A,, D,,A,,D,,A,, | [A,,,A,,]4 [A,,E,]4 | [D,,,D,,]4 [D,,A,,]4 | [E,,,E,,]4 [E,,B,,]4 | %126
 E,,B,,E,,B,, E,,B,,E,,B,, | C,,4 [C,,G,,]4 | C,,G,,C,,G,, C,,G,,C,,G,, | [D,,,D,,]4 [D,,A,,]4 | %130
 D,,A,,D,,A,, D,,A,,D,,A,, | [A,,,A,,]4 [A,,E,]4 | [D,,,D,,]4 [D,,A,,]4 | [E,,,E,,]8 | z8 | %135
 [E,,,E,,]8 | z8 | z3 F,,3 G,,2- | G,, A,,3 G,,2 F,,2 | z3 F,,3 G,,2- | G,, A,,3 G,,2 F,,2 | %141
 z3 F,,3 G,,2- | G,, A,,3 G,,2 F,,2 | z3 F,,3 G,,2- | G,, A,,3 G,,2 F,,2 | [E,,,E,,]8- | %146
 [E,,,E,,]8 | z8 | z8 | z8 | z8 | z8 | z8 | z8 | z8 | z8 | z8 | z8 | z8 | z8 | z8 | z8 | z8 | z8 |] %164
V:3
 x8 | x8 | x8 | x8 | x8 | x8 | x8 | x8 | x8 | x8 | x8 | x8 | x8 | x8 | x8 | x8 | x8 | x8 | x8 | %19
 x8 | x8 | x8 | x8 | x8 | x8 | x8 | x8 | x8 | x8 | x8 | x8 | x8 | x8 | x8 | x8 | x8 | x8 | x8 | %38
 x8 | x8 | x8 | x8 | x8 | x8 | x8 | x8 | x8 | x8 | x8 | x8 | x8 | x8 | x8 | x8 | x8 | x8 | x8 | %57
 x8 | x8 | x8 | x8 | E,,,8- | E,,,8 | x8 | x8 | D,,,8 | x8 | x8 | x8 | x8 | x8 | x8 | x8 | x8 | %74
 x8 | x8 | x8 | x8 | x8 | x8 | x8 | x8 | x8 | x8 | x8 | x8 | x8 | x8 | x8 | x8 | x8 | x8 | x8 | %93
 x8 | x8 | x8 | x8 | x8 | x8 | x8 | x8 | x8 | x8 | x8 | x8 | x8 | x8 | x8 | x8 | x8 | x8 | x8 | %112
 x8 | x8 | x8 | x8 | x8 | x8 | x8 | x8 | x8 | x8 | x8 | x8 | x8 | x8 | x8 | x8 | x8 | x8 | x8 | %131
 x8 | x8 | x8 | x8 | x8 | x8 | [E,,,E,,]8 | x8 | [E,,,E,,]8 | x8 | [E,,,E,,]8 | x8 | [E,,,E,,]8 | %144
 x8 | x8 | x8 | x8 | x8 | x8 | x8 | x8 | x8 | x8 | x8 | x8 | x8 | x8 | x8 | x8 | x8 | x8 | x8 | %163
 x8 |] %164

